public/images/university.svg

<svg width="32" height="32" viewBox="0 0 32 32" fill="none" xmlns="http://www.w3.org/2000/svg">
<path d="M16 28C22.6274 28 28 22.6274 28 16C28 9.37258 22.6274 4 16 4C9.37258 4 4 9.37258 4 16C4 22.6274 9.37258 28 16 28Z" stroke="#3F4040" stroke-width="2" stroke-linecap="round" stroke-linejoin="round"/>
<path d="M26.7706 21.2965L19.9848 17.123C19.8659 17.0498 19.7329 17.0024 19.5945 16.9837L16.7422 16.5992C16.528 16.5704 16.3102 16.6117 16.1215 16.7169C15.9327 16.8222 15.7832 16.9858 15.6952 17.1832L13.9828 21.0255C13.9032 21.2042 13.8777 21.4023 13.9096 21.5953C13.9414 21.7883 14.0292 21.9678 14.162 22.1114L16.512 24.6532C16.6185 24.7685 16.6964 24.9072 16.7394 25.0581C16.7824 25.209 16.7893 25.3679 16.7595 25.522L16.2808 27.9966" stroke="#3F4040" stroke-width="2" stroke-linecap="round" stroke-linejoin="round"/>
<path d="M8.119 6.95081L7.00097 9.59452C6.90128 9.83025 6.89577 10.0952 6.98557 10.3349L8.42193 14.1684C8.48075 14.3254 8.57809 14.4651 8.705 14.5746C8.83191 14.6841 8.98433 14.76 9.14822 14.7952L11.827 15.371C11.9756 15.4029 12.115 15.4683 12.2346 15.5622C12.3541 15.6562 12.4507 15.7761 12.5169 15.9129L12.9926 16.8957C13.0745 17.0648 13.2024 17.2074 13.3615 17.3072C13.5207 17.4071 13.7048 17.46 13.8927 17.46H15.5718" stroke="#3F4040" stroke-width="2" stroke-linecap="round" stroke-linejoin="round"/>
<path d="M19.0573 4.39355L20.224 6.48335C20.3343 6.68091 20.3744 6.91003 20.3376 7.13329C20.3009 7.35654 20.1895 7.56073 20.0217 7.7125L16.6578 10.7547C16.6007 10.8063 16.5378 10.8512 16.4705 10.8884L14.9402 11.7334C14.7922 11.8152 14.6259 11.8581 14.4568 11.8581H11.7886C11.5919 11.8581 11.3995 11.9161 11.2356 12.0249C11.0716 12.1338 10.9435 12.2885 10.8671 12.4699L9.82617 14.9409" stroke="#3F4040" stroke-width="2" stroke-linecap="round" stroke-linejoin="round"/>
<path d="M9.5 7.5L8 10L9.5 13L10 11L11.5 10.5H14.5L16 9.5L19 7L18 5.5H16.5H14.5L11.5 6L9.5 7.5Z" fill="#312ED7" stroke="#312ED7" stroke-linecap="round"/>
</svg>

<svg width="32" height="32" fill="none" xmlns="http://www.w3.org/2000/svg"><path d="M16 28c6.627 0 12-5.373 12-12S22.627 4 16 4 4 9.373 4 16s5.373 12 12 12Z" stroke="#3F4040" stroke-width="2" stroke-linecap="round" stroke-linejoin="round"/><path d="m26.77 21.297-6.785-4.174a1 1 0 0 0-.39-.14l-2.853-.384a1 1 0 0 0-1.047.584l-1.712 3.843a1 1 0 0 0 .179 1.085l2.35 2.542a1.001 1.001 0 0 1 .247.869l-.478 2.475" stroke="#3F4040" stroke-width="2" stroke-linecap="round" stroke-linejoin="round"/><path d="M8.119 6.95 7.001 9.596a1 1 0 0 0-.015.74l1.436 3.833a1 1 0 0 0 .726.627l2.679.576a1 1 0 0 1 .69.542l.476.983a1 1 0 0 0 .9.564h1.679" stroke="#3F4040" stroke-width="2" stroke-linecap="round" stroke-linejoin="round"/><path d="m19.057 4.394 1.167 2.09a1 1 0 0 1-.202 1.229l-3.364 3.042c-.057.051-.12.096-.188.133l-1.53.845a1 1 0 0 1-.483.125h-2.668a1 1 0 0 0-.922.612l-1.04 2.47" stroke="#3F4040" stroke-width="2" stroke-linecap="round" stroke-linejoin="round"/><path d="M9.5 7.5 8 10l1.5 3 .5-2 1.5-.5h3l1.5-1L19 7l-1-1.5h-3.5l-3 .5-2 1.5Z" fill="#312ED7" stroke="#312ED7" stroke-linecap="round"/></svg>
